Obsidian/actions/16s/window-maximize.svg

<svg height="16" viewBox="0 0 16 16" width="16" xmlns="http://www.w3.org/2000/svg"><path d="m7 4v3h-3v2h3v3h2v-3h3v-2h-3v-3z" fill="#bebebe"/></svg>

<svg xmlns="http://www.w3.org/2000/svg" width="16" height="16" viewBox="0 0 16 16">
 <defs>
  <style id="current-color-scheme" type="text/css">
   .ColorScheme-Text { color:#bebebe; } .ColorScheme-Highlight { color:#4285f4; }
  </style>
 </defs>
 <path style="fill:currentColor" class="ColorScheme-Text" d="M 7 4 L 7 7 L 4 7 L 4 9 L 7 9 L 7 12 L 9 12 L 9 9 L 12 9 L 12 7 L 9 7 L 9 4 L 7 4 z"/>
</svg>
